symbols/web/inventory_2/materialsymbolsrounded/inventory_2_wght100grad200_24px.svg

<svg xmlns="http://www.w3.org/2000/svg" height="24" width="24"><path d="M5.65 21.8q-.925 0-1.537-.612-.613-.613-.613-1.538V8.875q-.375-.15-.688-.687Q2.5 7.65 2.5 7.1V5.65q0-.925.612-1.538Q3.725 3.5 4.65 3.5h14.7q.925 0 1.538.612.612.613.612 1.538V7.1q0 .55-.312 1.088-.313.537-.688.687V19.65q0 .925-.612 1.538-.613.612-1.538.612Zm-.8-12.55v10.4q0 .35.225.575.225.225.575.225h12.7q.35 0 .575-.225.225-.225.225-.575V9.25Zm14.5-1.35q.35 0 .575-.225.225-.225.225-.575V5.65q0-.35-.225-.575-.225-.225-.575-.225H4.65q-.35 0-.575.225-.225.225-.225.575V7.1q0 .35.225.575.225.225.575.225Zm-9.475 6h4.25q.275 0 .475-.2.2-.2.2-.475 0-.275-.2-.475-.2-.2-.475-.2h-4.25q-.275 0-.475.2-.2.2-.2.475 0 .275.2.475.2.2.475.2ZM4.85 20.45V9.25v11.2Z"/></svg>

<svg xmlns="http://www.w3.org/2000/svg" height="24" width="24"><path d="M5.65 21.8Q4.725 21.8 4.113 21.188Q3.5 20.575 3.5 19.65V8.875Q3.125 8.725 2.812 8.188Q2.5 7.65 2.5 7.1V5.65Q2.5 4.725 3.112 4.112Q3.725 3.5 4.65 3.5H19.35Q20.275 3.5 20.888 4.112Q21.5 4.725 21.5 5.65V7.1Q21.5 7.65 21.188 8.188Q20.875 8.725 20.5 8.875V19.65Q20.5 20.575 19.888 21.188Q19.275 21.8 18.35 21.8ZM4.85 9.25V19.65Q4.85 20 5.075 20.225Q5.3 20.45 5.65 20.45H18.35Q18.7 20.45 18.925 20.225Q19.15 20 19.15 19.65V9.25ZM19.35 7.9Q19.7 7.9 19.925 7.675Q20.15 7.45 20.15 7.1V5.65Q20.15 5.3 19.925 5.075Q19.7 4.85 19.35 4.85H4.65Q4.3 4.85 4.075 5.075Q3.85 5.3 3.85 5.65V7.1Q3.85 7.45 4.075 7.675Q4.3 7.9 4.65 7.9ZM9.875 13.9H14.125Q14.4 13.9 14.6 13.7Q14.8 13.5 14.8 13.225Q14.8 12.95 14.6 12.75Q14.4 12.55 14.125 12.55H9.875Q9.6 12.55 9.4 12.75Q9.2 12.95 9.2 13.225Q9.2 13.5 9.4 13.7Q9.6 13.9 9.875 13.9ZM4.85 20.45Q4.85 20.45 4.85 20.225Q4.85 20 4.85 19.65V9.25V19.65Q4.85 20 4.85 20.225Q4.85 20.45 4.85 20.45Z"/></svg>
